X: 38236
T: Squire Woods Lamentation On Refusal Of His Halfpence
R: reel
M: 4/4
K: Dmajor
V:1
DE|"D"F4 "B,m"F3 d|"D"A2 FA "B,m"F2 ED|"D"F4 F3 d|"G,"B2 AB "D"F3 d|
V:2
zz|D3E F4|D4 A4|D3E FADF|G4 dcdF|
V:1
"G,"B2 AF "D"A2 AE|"B,m"F2 "A,"ED E2 DB,|"D"D3 E "B,m"FD AF|"A," TE4 D2||
V:2
G4 F4|D4 G4|F3A F4|c4 d2||
V:1
A2|"D/G,"Bc d2 "D"D2 d2|de f/e/d "G,"B3 A|"D"F2 A2 "G,"Bcdc|"Em"TB4 "A,/E"A3 A|
V:2
z2|G4 F4|B4 G4|D2 c2 B2 F2|G4 FEDF|
V:1
"G,"Bcde "D"d2 D2|de f/e/d "G,"B3 A|"D"FE F2 "B,m"AF A2|"G,"BA B2 "A,"=c4|
V:2
G4 F4|B4 G4|D2 c2 A2 F2|G3B A4|
V:1
"G,"dB d2 "Em"BA B2|"D"AF A2 "B,m"FD F2|"G,/D"d3 B "D"AdAF|"A,"E4 "D"D2|
V:2
G4 E4|G4 z4|G4 F4|E4 F2||

